icons/action/icon_lock_m_white.svg

<?xml version="1.0" encoding="UTF-8"?>
<svg width="24px" height="24px" viewBox="0 0 24 24" version="1.1" xmlns="http://www.w3.org/2000/svg" xmlns:xlink="http://www.w3.org/1999/xlink">
    <!-- Generator: Sketch 48.2 (47327) - http://www.bohemiancoding.com/sketch -->
    <title>icon_lock_m_white</title>
    <desc>Created with Sketch.</desc>
    <defs></defs>
    <g id="Page-1" stroke="none" stroke-width="1" fill="none" fill-rule="evenodd">
        <g id="icon_lock_m_white">
            <rect id="Rectangle-path-Copy" x="0" y="0" width="24" height="24"></rect>
            <path d="M19.436,9 L18,9 L18,5.5 C18,2.468 15.533,0 12.5,0 L11.5,0 C8.467,0 6,2.468 6,5.5 L6,9 L4.564,9 C3.702,9 3,9.702 3,10.564 L3,20.306 C3,22.343 4.657,24 6.694,24 L17.306,24 C19.343,24 21,22.343 21,20.307 L21,10.565 C21,9.702 20.298,9 19.436,9 L19.436,9 Z M7,5.5 C7,3.019 9.019,1 11.5,1 L12.5,1 C14.981,1 17,3.019 17,5.5 L17,9 L7,9 L7,5.5 L7,5.5 Z M20,20.307 C20,21.792 18.792,23 17.306,23 L6.694,23 C5.208,23 4,21.792 4,20.307 L4,10.565 C4,10.253 4.253,10 4.564,10 L6,10 L18,10 L19.436,10 C19.747,10 20,10.253 20,10.564 L20,20.307 L20,20.307 Z" id="Shape-Copy" fill="#FFFFFF"></path>
            <path d="M12,13 C10.895,13 10,13.895 10,15 C10,15.738 10.405,16.376 11,16.723 L11,20 L13,20 L13,16.723 C13.595,16.377 14,15.739 14,15 C14,13.895 13.105,13 12,13 L12,13 Z" id="Shape-Copy-2" fill="#FFFFFF" opacity="0.4"></path>
        </g>
    </g>
</svg>

<svg width="24" height="24" viewBox="0 0 24 24" xmlns="http://www.w3.org/2000/svg"><g fill="none" fill-rule="evenodd"><path d="M0 0h24v24H0z"/><path d="M19.4 9H18V5.5c0-3-2.5-5.5-5.5-5.5h-1C8.5 0 6 2.5 6 5.5V9H4.6C3.7 9 3 9.7 3 10.6v9.7c0 2 1.7 3.7 3.7 3.7h10.6c2 0 3.7-1.7 3.7-3.7v-9.7c0-.9-.7-1.6-1.6-1.6zM7 5.5C7 3 9 1 11.5 1h1C15 1 17 3 17 5.5V9H7V5.5zm13 14.8c0 1.5-1.2 2.7-2.7 2.7H6.7C5.2 23 4 21.8 4 20.3v-9.7c0-.3.3-.6.6-.6h14.8c.3 0 .6.3.6.6v9.7z" fill="#FFF" fill-rule="nonzero"/><path d="M12 13c-1.1 0-2 .9-2 2 0 .7.4 1.4 1 1.7V20h2v-3.3c.6-.3 1-1 1-1.7 0-1.1-.9-2-2-2z" fill="#FFF" fill-rule="nonzero" opacity=".3"/></g></svg>
